X:120
T:Bird's Hornpipe, The
R:hornpipe
Z:id:hn-hornpipe-120
M:C|
L:1/8
K:Ador
ce | ~g3a gecG | cega g2eg | a2ab agec | ageg a2ba |
~g3e d2ed | cdeg a2ag | (3efg ed cAdc |1 A2 (3GAB AB :|2 A2 (3GAB A2ed ||
|: cAAG AcBA | GEDE G2AB | cAAG A2cd | eg~g2 aged |
cAAG AcBA | GEDE G2EG | ~A3c BAGB |1 A2 (3GAB A2ed :|2 A2 (3GAB A2 || 

